assets/img/icons/ui/experimental.svg

<?xml version="1.0" encoding="utf-8"?>
<!-- Generated by IcoMoon.io -->
<!DOCTYPE svg PUBLIC "-//W3C//DTD SVG 1.1//EN" "http://www.w3.org/Graphics/SVG/1.1/DTD/svg11.dtd">
<svg version="1.1" xmlns="http://www.w3.org/2000/svg" xmlns:xlink="http://www.w3.org/1999/xlink" width="32" height="32" viewBox="0 0 32 32">
<path fill="rgb(0, 0, 0)" d="M30.225 28.521c-4.553-7.886-6.415-11.112-10.225-17.71v-8.811h1c0.55 0 1-0.45 1-1s-0.45-1-1-1h-10c-0.55 0-1 0.45-1 1s0.45 1 1 1h1v8.811c-3.81 6.599-5.672 9.825-10.226 17.712-0.414 0.717-0.413 1.601 0.002 2.318s1.18 1.159 2.008 1.159c10.563 0 13.871 0 24.435 0 0.828 0 1.593-0.443 2.007-1.161s0.414-1.601-0-2.318zM7.849 22l6.151-10.654v-9.346h4v2h-2v2h2v4h-2v2h2.378l2.309 4h-4.687v2h5.841l2.309 4h-16.301z"></path>
</svg>

<svg xmlns="http://www.w3.org/2000/svg" width="32" height="32" viewBox="0 0 32 32"><path d="M30.225 28.521L20 10.811V2h1c.55 0 1-.45 1-1s-.45-1-1-1H11c-.55 0-1 .45-1 1s.45 1 1 1h1v8.811L1.774 28.523A2.32 2.32 0 0 0 3.784 32h24.435a2.318 2.318 0 0 0 2.007-3.479zM7.849 22L14 11.346V2h4v2h-2v2h2v4h-2v2h2.378l2.309 4H16v2h5.841l2.309 4H7.849z"/></svg>
